X:134020
T:When the Battle's Over
C: Pipe Major W Robb (Argyll & Sutherland Highlanders) (<1914)
B: Canadian Cadet Program / Scot's Guards (I.239)
O:Arranged by Kevin Fraser
Z:Kevin Fraser
H:In 1961, the famous Scottish singer Andy Stewart put words to the tune and his song.  (1908) - This is not a Highland tune properly speaking, but it suits the pipes extremely well, and is favourite with many pipers who play it without knowing exactly what it is. It is believed to be an old Tyrolese air, introduced by Rossini into his opera, William Tell. During the Crimean campaign, Pipe Major John MacLeod of the 93rd Highlanders heard a band of the Sardinian contingent playing selections from the opera in the camp before Sebastopol. He was struck by the air, and put it on the pipes. It has been played in the 93rd ever since, generally in parts.
Q:1/4=78
M:3/4
L:1/8
R:March
K:HP
I:MIDI=program 110
%%MIDI gracedivider 100
U: R = ///
U: r = //
U: V = !accent!
V:M gstem=up stem=down name="Melody" sname="Melody"
V:H gstem=up stem=down name="Harmony" sname="Harmony"
V:C gstem=up stem=down name="C-Harmony"
V:S gstem=up stem=down dyn=up stafflines=1 clef=perc middle=G name="Snare" sname="Snare"" sname="Snare"
V:B gstem=up stem=down clef=none dyn=up name="Bass"
V:T gstem=up stem=down clef=none dyn=up name="Tenor"
V:BB gstem=up stem=down name="Brass Bass" sname="ABCD-C" transpose=-1  octave=-1 clef=bass
V:BC gstem=up stem=down name="Brass Chord" sname="ABCD-D" transpose=-1
V:BD gstem=up stem=down name="Brass Chord 2" sname="ABCD-B" transpose=-1
V:P gstem=up stem=down name="Piano" octave=-1
V:M gstem=up stem=down name="Melody"
%%MIDI program 109 #bagpipes
%%MIDI vol 100
%%landscape
%%scale 0.6
[V:M] [: {g}A>B {GdG}c2 {ag}a2 | {fg}f>e {gcd}c2 {e}A2 | {g}A>B {GdG}c2  {gef}e>c | {gBd}B{e}A {GdG}B4 | $
w:        hen o dro dili      |  vete e hoto un       | hen o    dro     hete   o | hoto un dro
[V:M]    |{g}A>B {GdG}c2 {ag}a2 | {fg}f>e {gcd}c2 {e}A2 | {g}A>B {GdG}c2  {gef}e>c | {g}B>c {G}A4 :] $
w:        hen o dro dili      |  vete e hoto un       | hen o dro       hete o  | ho o den
[V:M][: {gef}e>c {gBd}B2 {G}A2 | {ag}a>g {fg}f2 {gef}e2  | {g}A>B {GdG}c2  {gef}e>c | {gBd}B{e}A {GdG}B4 | $
w:       hete  o  hoto    den  | chili di vete   hete    | hen o   dro     hete o   | hoto    un dro
[V:M]   |{gef}e>c {gBd}B2 {G}A2 | {ag}a>g {fg}f2 {gef}e2  | {g}A>B {GdG}c2  {gef}e>c | {g}B>c {G}A4 :]
w:       hete  o  hoto    den  | chili di vete   hete    | hen o   dro     hete o   | ho o den
[V:H][: "2nd Time"{g}c>d {gef}e2 {gfg}f2 | {gde}dc {gef}e2 {gcd}c2 | {g}c>d {gef}e2 {gcd}c>e | {Gdc}dc {Gdc}d4 |
[V:H]|{g}c>d {gef}e2 {gfg}f2 | {gde}dc {gef}e2 {gcd}c2 | {g}c>d {gef}e2 {gcd}c>e | {Gdc}de {gcd}c4  :]
[V:H][: "2nd Time"{g}c>{e}A {Gdc}d2 {gcd}c2 | {g}f>e {Gdc}d2 {gcd}c2 |{g}c>d {gef}e2 {gcd}c>e  | {Gdc}d{e}c {Gdc}d4|
[V:H] |            {g}c>{e}A {Gdc}d2 {gcd}c2 | {g}f>e {Gdc}d2 {gcd}c2 |{g}c>d {gef}e2 {gcd}c>e  | {Gdc}de {gcd}c4:]
W:When the Battles Over (Words by Andy Stewart 1961)
W:
W:I returned to the fields of glory,
W:Where the green grasses and flowers grow.
W:And the wind softly tells the story,
W: Of the brave lads of long ago.
W:
W:Chorus:
W:March no more my soldier laddie,
W:There is peace where there once was war.
W:Sleep in peace my soldier laddie,
W:Sleep in peace, now the battles over.
W:
W:In the great glen they lay a sleeping,
W:Where the cool waters gently flow.
W:And the gray mist is sadly weeping,
W:For those brave lads of long ago.
W:
W:See the tall grass is there awaiting,
W:As their banners of long ago.
W:With their heads high forward threading,
W:Stepping lightly to meet the foe.
W:
W:Some return from the fields of glory,
W:To their loved ones who held them dear.
W:But some fell in that hour of glory,
W:And were left to their resting here.

